remix/Document/file-user-fill.svg

<svg viewBox="0 0 24 24" fill="currentColor" xmlns="http://www.w3.org/2000/svg"><path d="M16 2L21 7V21.0082C21 21.556 20.5551 22 20.0066 22H3.9934C3.44476 22 3 21.5447 3 21.0082V2.9918C3 2.44405 3.44495 2 3.9934 2H16ZM12 11.5C13.3807 11.5 14.5 10.3807 14.5 9C14.5 7.61929 13.3807 6.5 12 6.5C10.6193 6.5 9.5 7.61929 9.5 9C9.5 10.3807 10.6193 11.5 12 11.5ZM7.52746 17H16.4725C16.2238 14.75 14.3163 13 12 13C9.68372 13 7.77619 14.75 7.52746 17Z"/></svg>

<svg viewBox="0 0 24 24" xmlns="http://www.w3.org/2000/svg"><path fill="none" d="M0 0h24v24H0Z"/><path d="M16 2l5 5v14.008h0c-.01.54-.45.99-1 .99H3.98v0c-.55-.01-.99-.45-1-1V2.98c-.001-.55.44-1 .99-1h12Zm-4 9.5v0c1.38 0 2.5-1.12 2.5-2.5 0-1.39-1.12-2.5-2.5-2.5v0c-1.39 0-2.5 1.11-2.5 2.5 0 1.38 1.11 2.5 2.5 2.5ZM7.52 17h8.946v0c-.28-2.48-2.5-4.26-4.97-3.99 -2.1.23-3.76 1.88-3.99 3.98Z"/></svg>
